components/Company/logos/logo-gree.svg

<svg height="140" viewBox="0 0 400 140" width="400" xmlns="http://www.w3.org/2000/svg" xmlns:xlink="http://www.w3.org/1999/xlink"><mask id="a" fill="#fff"><path d="m.00189526 0h1128.19941474v1599.0333h-1128.19941474z" fill="#fff" fill-rule="evenodd"/></mask><g fill="#00a0dc" fill-rule="nonzero" transform="translate(-700 -710)"><path d="m29.4957627 0-28.49683954 16.4893179-.00393277 32.9746934 28.48504121 16.5110015 28.4929067-16.4873467.0157311-32.9746934z" transform="matrix(1 0 0 -1 777 807)"/><g mask="url(#a)" transform="matrix(1 0 0 -1 0 1600)"><path d="m29.1733047 29.0779256v-7.0750324h8.7731618c0-.7863258.0075811-11.8575644.0075811-12.38178161-2.8466816-1.52326872-7.0257315-2.40266201-11.5383472-2.40266201-10.5471258 0-18.50153493 8.16525222-18.50153493 19.01046962 0 9.8708573 7.12997073 19.0826445 17.43071263 19.0826445 3.8284266 0 9.3208921-.8850913 13.6932586-5.1130167l5.2820916 5.6429319c-3.3830404 3.5118751-10.0088718 7.2630668-18.4750014 7.2630668-17.00806947 0-25.80018386-13.925943-25.80018386-26.8756265 0-11.3257499 7.23989587-26.07600535 26.49953506-26.07600535 11.7165017 0 18.8749014 4.67047106 18.8749014 4.67047106l-.0075811 24.26213799z" transform="translate(844.085688 800.917963)"/><path d="m7.5810428 28.4900634c0 .7958225-.00758104 14.6059059-.00758104 15.3941309h9.42134094c4.7154086 0 10.0638343-1.3333349 10.0638343-7.6904177 0-5.1699969-3.104437-7.6923172-10.0600438-7.7037132zm27.3732503 7.7037132c-.0909725 4.4197585-1.5654853 14.3798846-16.0945539 14.376087l-18.7630809-.0056991v-49.83671821h7.49575606s-.01137156 19.84997681-.01137156 20.67049071c.74483746 0 7.829322-.0037987 8.2254314-.0037987.2520697-.3551761 14.9517117-20.65529599 14.9517117-20.65529599h9.3606926s-16.0623344 20.94969329-16.8393913 21.99053029c6.8039859 1.0864211 11.8302173 7.0655357 11.6748059 13.464404" transform="translate(898.815447 801.513233)"/><path d="m34.1146926 49.9706387-33.47788501-.0151947v-49.83481889l33.47788501.01899338v7.0845291h-26.00108154c0 .79582244-.01137157 13.95443301-.01137157 14.75405421h19.71260651v7.0883277h-19.71260651v13.8005868h26.01245311z" transform="translate(943.702043 802.13107)"/><path d="m34.1146926 49.9706387-33.48925657-.0151947v-49.83481889l33.48925657.01899338v7.0845291h-25.9935005c0 .79582244-.01137156 13.95443301-.01137156 14.75405421h19.71260656v7.0883277h-19.71260656c0 .7901245-.00758105 13.014261-.00758105 13.8005868h26.01245311z" transform="translate(986.608092 802.13107)"/></g></g></svg>

<?xml version="1.0" encoding="UTF-8"?>
<svg width="400px" height="140px" viewBox="0 0 400 140" version="1.1" xmlns="http://www.w3.org/2000/svg" xmlns:xlink="http://www.w3.org/1999/xlink">
    <title>Artboard</title>
    <defs>
        <polygon id="path-1" points="0.0018952607 0 1128.20131 0 1128.20131 1599.0333 0.0018952607 1599.0333"></polygon>
    </defs>
    <g id="Artboard" stroke="none" stroke-width="1" fill="none" fill-rule="evenodd">
        <g id="GREE_logo-(1)" transform="translate(-700.000000, -710.000000)">
            <g id="g3356" transform="translate(806.000000, 774.000000) scale(-1, 1) rotate(-180.000000) translate(-806.000000, -774.000000) translate(777.000000, 741.000000)" fill="#00A0DC" fill-rule="nonzero">
                <polygon id="path3358" points="29.4957627 0 0.998923162 16.4893179 0.994990394 49.4640113 29.4800316 65.9750128 57.9729383 49.4876661 57.9886694 16.5129727"></polygon>
            </g>
            <g id="g3362-Clipped" transform="translate(564.500000, 800.000000) scale(-1, 1) rotate(-180.000000) translate(-564.500000, -800.000000) ">
                <mask id="mask-2" fill="white">
                    <use xlink:href="#path-1"></use>
                </mask>
                <g id="path3366"></g>
                <g id="g3362" mask="url(#mask-2)">
                    <g transform="translate(843.957883, 800.344726)">
                        <g id="g3368" transform="translate(0.127805, 0.573237)">
                            <path d="M29.1733047,29.0779256 L29.1733047,22.0028932 L37.9464665,22.0028932 C37.9464665,21.2165674 37.9540476,10.1453288 37.9540476,9.62111159 C35.107366,8.09784287 30.9283161,7.21844958 26.4157004,7.21844958 C15.8685746,7.21844958 7.91416547,15.3837018 7.91416547,26.2289192 C7.91416547,36.0997765 15.0441362,45.3115637 25.3448781,45.3115637 C29.1733047,45.3115637 34.6657702,44.4264724 39.0381367,40.198547 L44.3202283,45.8414789 C40.9371879,49.353354 34.3113565,53.1045457 25.8452269,53.1045457 C8.83715743,53.1045457 0.0450430389,39.1786027 0.0450430389,26.2289192 C0.0450430389,14.9031693 7.28493891,0.15291385 26.5445781,0.15291385 C38.2610798,0.15291385 45.4194795,4.82338491 45.4194795,4.82338491 L45.4118984,29.0855229 L29.1733047,29.0779256 Z" id="path3370" fill="#00A0DC" fill-rule="nonzero"></path>
                        </g>
                        <g id="g3372" transform="translate(54.857564, 1.168507)">
                            <path d="M7.5810428,28.4900634 C7.5810428,29.2858859 7.57346176,43.0959693 7.57346176,43.8841943 L16.9948027,43.8841943 C21.7102113,43.8841943 27.058637,42.5508594 27.058637,36.1937766 C27.058637,31.0237797 23.9542,28.5014594 16.9985932,28.4900634 L7.5810428,28.4900634 Z M34.9542931,36.1937766 C34.8633206,40.6135351 33.3888078,50.5736612 18.8597392,50.5698636 L0.0966582957,50.5641645 L0.0966582957,0.727446286 L7.59241436,0.727446286 C7.59241436,0.727446286 7.5810428,20.5774231 7.5810428,21.397937 C8.32588026,21.397937 15.4103648,21.3941383 15.8064742,21.3941383 C16.0585439,21.0389622 30.7581859,0.738842311 30.7581859,0.738842311 L40.1188785,0.738842311 C40.1188785,0.738842311 24.0565441,21.6885356 23.2794872,22.7293726 C30.0834731,23.8157937 35.1097045,29.7949083 34.9542931,36.1937766" id="path3374" fill="#00A0DC" fill-rule="nonzero"></path>
                        </g>
                        <g id="g3376" transform="translate(99.744160, 1.786344)">
                            <path d="M34.1146926,49.9706387 L0.636807595,49.955444 L0.636807595,0.120625111 L34.1146926,0.139618487 L34.1146926,7.22414759 L8.11361106,7.22414759 C8.11361106,8.01997003 8.10223949,21.1785806 8.10223949,21.9782018 L27.814846,21.9782018 L27.814846,29.0665295 L8.10223949,29.0665295 L8.10223949,42.8671163 L34.1146926,42.8671163 L34.1146926,49.9706387 Z" id="path3378" fill="#00A0DC" fill-rule="nonzero"></path>
                        </g>
                        <g id="g3380" transform="translate(142.650209, 1.786344)">
                            <path d="M34.1146926,49.9706387 L0.625436031,49.955444 L0.625436031,0.120625111 L34.1146926,0.139618487 L34.1146926,7.22414759 L8.1211921,7.22414759 C8.1211921,8.01997003 8.10982054,21.1785806 8.10982054,21.9782018 L27.8224271,21.9782018 L27.8224271,29.0665295 L8.10982054,29.0665295 C8.10982054,29.856654 8.10223949,42.0807905 8.10223949,42.8671163 L34.1146926,42.8671163 L34.1146926,49.9706387 Z" id="path3382" fill="#00A0DC" fill-rule="nonzero"></path>
                        </g>
                    </g>
                </g>
            </g>
        </g>
    </g>
</svg>
